X:1
T:Title
%%score { ( 1 4 ) | ( 2 3 ) }
L:1/8
Q:1/4=100
M:4/4
K:Eb
V:1 treble nm="Grand Piano"
V:4 treble 
V:2 bass 
V:3 bass 
V:1
 [B,GB][B,GB][CAB][DAB] [EGB]2 [B,EG][G,E] | [DF]6 z2 | [DA][DA][EA][EA] [FA]2 [DF]A | [B,EG]6 z2 | %4
w: Haldor~Lillenas * * * * * *||||
 [B,GB][B,GB][CAB][DAB] [EGB]2 [B,EG]E | A6 z2 | [DF][EG][FA][GB] [Ac]2 [Ad]2 | [Ge]6 z2 | %8
w: ||||
 [Ge][Ge][Ge][Ge] [Gd]2 .[CAc]2 | [EAc]4 [EGB]4 | [EGe][DGe][Ge][Ge] d2 c2 | B6 z2 | %12
w: ||||
 [B,GB][B,GB][B,AB][B,AB] [Ge][GB]GE | E2- [EB]2 c4 | dcBA [EG]2 [DF]2 | E6 z2 |] %16
w: ||||
V:2
 E,E,E,E, E,2 E,E, | [B,,B,]6 z2 | [B,,B,][B,,B,][C,B,][C,B,] [D,B,]2 z F | E,6 z2 | %4
 E,E,E,E, E,2 z G, | [F,B,D]6 z2 | [B,,B,][B,,B,][B,,B,][B,,B,] [B,,B,]2 [B,,B,]2 | [E,B,]6 z2 | %8
 [E,B,][E,B,][E,B,][E,B,] [E,B,]2 z D | E,4 E,4 | C,C,[C,C][C,B,] [F,B,F]2 [F,=A,E]2 | D2 z2 z4 | %12
 E,E,F,F, [E,B,][E,B,][E,B,E][_D,G,] | [C,A,]2 [E,G,]2[K:treble] [A,E]4 | %14
 [B,A][B,A][B,G][B,F][K:bass] [B,,B,]2 [B,,A,]2 | [E,G,]6 z2 |] %16
V:3
 x8 | x8 | z4 z2 [B,,B,]2 | x8 | z4 z2 E,2 | x8 | x8 | x8 | z4 z2 E,2 | x8 | x8 | %11
 B,2- [A,B,-]2 [G,B,]2 E,2 | x8 | x4[K:treble] x4 | x4[K:bass] x4 | x8 |] %16
V:4
 x8 | x8 | x8 | x8 | x8 | x8 | x8 | x8 | x8 | x8 | x8 | z2 F2 E2 A2 | x8 | A2 z2 z4 | x8 | x8 |] %16

